X:1
T:The Foxhunter
L:1/8
Q:1/4=180
M:9/8
K:D
"D"D D,2 z z3"G"G A, z (C, |"D"D D,) z2 z3"A"A A,,B,,C, |"D"D D, z2 z3"G"G G,,2 ^A,, |"Bm"B B,,3 z3"A"A z2 C, ::
"Bm"B B,, z A,, z G,, z F,, z z |"A"A E,,6 z3 |1
"D"D D,3 A,, z z A,, z z |"D"D D,3 z3 z3 :|2"D"D D,3 A,, z z A,, z z |"D"D D,3 z3 z3 |:
"D"D D,3 z3"G"G G,,3 |"D"D D,3 z3"A"A E,3 |"D"D D,3 z2"G" zG z2 z |"Bm"B B,,3 z2"A" zA C,3 ::
"G"G B,, z A,, z G,, z F,, z z |"A"A E,,6 z2 z |"D"D D,3 A,, z"A" zA A,, z z |"D"D D,3 z3 z3 :|
